X: 1
T: Christmas Eve (simplified)
O: O'Neill's 1850 #494
B: O'Neill's 1850 #494
%date: 1903
Z: 1999 by John Chambers <jc:trillian.mit.edu>
N: 2019 Chords by Darlene Wigton
N: "Moderate"
N: Collected by "F.O'Neill"
M: C
L: 1/8
K: G
   BA \
| "G"G3E D2EG | "D"A2A2 "G"B2g2 | "G"d3c B2GA | "Em"B2E2 "D7"E2BA \
| "G"G2D2 G3A | B2d2 "C"e2g2 | "G"d2B2 "D7"A2GA | "G"B2G2 G2 :|
|: Bc \
| "G"d3c B2G2 | "G"B2d2 "C"e2"D7"f2 | "G"g3e d3B | "Am"A2E2 "D7"E2BA \
| "G"G3E D2EG | "Am"A2A2 "G"B2g2 | "D7"d3c B2GA | "G"B2G2 G2 :|

%%sep 1 1 500

